X: 25805
T: Mason's Apron, The
R: reel
M: 4/4
K: Amajor
eg|aA (3AAA ABAF|EFAB cABc|dB (3BBB BcBA|Bcde fefg|
aA (3AAA ABAF|EFAB cB/c/BA|Bcde fgaf|1 edcB Aefg|2 edcB A2ed:|
cAeA fAeA|cA (3AAA fedc|dBfB gBfB|dfBa gfed|
cAeA fAeA|cA (3AAA fedc|Bcde fgaf|edcB A2 ed|
cA(3AAA fAeA|ceAc fedc|dB(3BBB gBfB|bBfB gfed|
cA(3AAA fAeA|ceAc fedc|Bcde (3fga gf|edcB A2 B2|
c2 ecfc ec|(3ccc ecfc ec|(3ddd fdgd fd|d g2 d fded|
(3ccc c2 ecfc ec|(3ccc ecfc ec|d/e/d/c/ defg af|edcB A2 B2|
c2 ac gcfc|(3ccc acgc fc|(3ddd gdfd ed g3 d fded|c2 acgc fc|
(3ccc ac gcfc|d/e/d/c/ de fgaf|edcB A2 g2|
ae (3eee aefg|a2 ga fefa|be (3eee befg a2 ga|

